!!!COM:	Busnoys, Antoine
!!!CDT:	~1430///-1492/11/06
!!!OTL:	Faites de moy
!!!AGN:	Song; Chanson
!!!SCT:	Bus3021
!!!SCA:	Bus3021
!!!voices:	3
**kern	**kern	**kern
*staff3	*staff2	*staff1
*Ivox	*Ivox	*Ivox
*I"Contratenor	*I"Tenor	*I"Superius
*I'Ct	*I'T	*I'S
*clefF4	*clefGv2	*clefG2
*k[b-]	*k[b-]	*k[b-]
*M2/1	*M2/1	*M2/1
*met(C|)	*met(C|)	*met(C|)
=1-	=1-	=1-
!!LO:TX:Z=12:t=Rondeau
[0GG	1.G	1.g
.	2A	2f
=2	=2	=2
1GG]	1B-	1g
1C	1c	1e
=3	=3	=3
1BB-	1d	1d
1GG	1B-	[1g
=4	=4	=4
0D	0A	2g]
.	.	4f#i
.	.	4e
.	.	1f#i
=5	=5	=5
1GG	1.G	2g
.	.	1b-
2r	.	.
2D	2F	2a
=6	=6	=6
2E	1E	2g
2C	.	4f
.	.	4e
2D	1D	[1f
[2BB-	.	.
=7	=7	=7
2BB-]	1.B-	2f]
1GG	.	1g
2D	2A	2f
=8	=8	=8
2BB-	2B-	2d
2C	2G	1e
2AA	2A	.
2FF	[2A	2f
=9	=9	=9
2C	2A]	2e
2D	2F	1d
1AA	1E	.
.	.	2c#i
=10	=10	=10
1BB-	2D	1d
.	1G	.
1GG	.	1B-
.	2D	.
=11	=11	=11
2C	2E	2c
1BB-	2F	1d
.	2D	.
[2AA	2E	[2c
=12	=12	=12
2AA]	2F	2c]
2GG	1G	2B-
1D	.	1A
.	2F#i	.
=13	=13	=13
1GG	[0G	0G
2r	.	.
[2G	.	.
=14	=14	=14
2G]	0G]	1r
2B-	.	.
2G	.	1d
2B-	.	.
=15	=15	=15
2A	1r	1e
2G	.	.
1A	1D	1f
=16	=16	=16
1G	1E	1g
1D	1F	1f
=17	=17	=17
1B-	1G	1d
1A	2F	[1a
.	[2D	.
=18	=18	=18
1F	2D]	1a]
.	2F	.
2G	2C	[1g
2E	[2G	.
=19	=19	=19
2C	1G]	2g]
2E	.	4f
.	.	4e
1D	1A	1f
=20	=20	=20
1E	1G	1g
2F	1F	1a
[2D	.	.
=21	=21	=21
1D]	1B-	2d
.	.	2f
1C	1c	1e
=22	=22	=22
1BB-	2d	1d
.	2f	.
2C	2e	2c
2BB-	[2d	2d
=23	=23	=23
1AA	2d]	1e
.	2c	.
1BB-	4B-	1d
.	4c	.
.	[2d	.
=24	=24	=24
1GG	2d]	2r
.	2B-	1g
1D	1A	.
.	.	2f
=25	=25	=25
0GG	2G	2g
.	2.B-	2d
.	.	1g
.	4G	.
.	2B-	.
=26	=26	=26
0D	0A	0f
=27	=27	=27
1r	1r	1r
1D	1A	1f
=28	=28	=28
1AA	2A	1e
.	1A	.
1D	.	1f
.	2A	.
=29	=29	=29
1.GG	2G	1.g
.	1B-	.
2AA	2A	2f
=30	=30	=30
2BB-	2G	2g
2C	4F	2a
.	4E	.
4BB-	2D	1b-
4AA	.	.
2GG	[2G	.
=31	=31	=31
0D	2G]	0a
.	1F#i	.
.	2E	.
=32	=32	=32
2r	2G	2g
1GG	2r	1b-
.	2G	.
2D	2F	2a
=33	=33	=33
2E	2G	2g
2F	2A	4f
.	.	4e
2G	2B-	2d
[2F	[2c	[2a
=34	=34	=34
2F]	2c]	4a]
.	.	4g
2G	2B-	1g
1D	1A	.
.	.	2f#i
=35	=35	=35
0r	0G	0g
=36	=36	=36
*M3/1	*M3/1	*M3/1
*met(3)	*met(3)	*met(3)
0GG	0.r	0.r
1AA	.	.
=37	=37	=37
1GG	0.r	0d
1BB-	.	.
1C	.	1e
=38	=38	=38
0D	0D	1d
.	.	1f
1G	1E	1g
=39	=39	=39
1F	1D	0a
1D	1F	.
1E	1G	1g
=40	=40	=40
1D	0A	1f
0C	.	0e
.	1G	.
=41	=41	=41
1D	1F	0d
0AA	0E	.
.	.	1c#i
=42	=42	=42
1.A	1.D	0d
2G	2E	.
1A	1F	1r
=43	=43	=43
1G	0G	1d
1E	.	1e
1D	1A	1f
=44	=44	=44
1GG	1B-	1g
1.C	0G	1.e
2BB-	.	2d
=45	=45	=45
1D	1F	1f
0C	1G	0e
.	1A	.
=46	=46	=46
1BB-	0B-	1d
0F	.	0c
.	1A	.
=47	=47	=47
1BB-	1B-	0B-
1GG	1.d	.
1AA	.	1r
.	2c	.
=48	=48	=48
1BB-	1B-	1d
1C	1A	1e
1D	1A	1f
=49	=49	=49
2GG	0G	1.g
1BB-	.	.
2C	.	2e
1AA	1A	1f#i
=50	=50	=50
1GG	1B-	1g
1C	1c	1e
1D	1A	1f
=51	=51	=51
0BB-	1B-	0d
.	0G	.
1G	.	1e
=52	=52	=52
1F	1A	0f
1D	0B-	.
[1E	.	1g
=53	=53	=53
1E]	1c	0a
0D	0d	.
.	.	1f
=54	=54	=54
1E	1B-	1g
1C	1c	1e
1D	1A	1f
=55	=55	=55
1BB-	1B-	1g
1AA	1c	1a
1C	1e-i	2g
.	.	2a
=56	=56	=56
1GG	1d	1b-
1.F	1.c	1.a
2G	2B-	2g
=57	=57	=57
1E	1G	0g
0D	0A	.
.	.	1f#i
=58	=58	=58
0.GGl	0.Gl	0.gl
==	==	==
*-	*-	*-
!!!RDF**kern: l=long note in original notation
!!!RDF**kern: i=editorial accidental
!!!ENC:	Chris Gage 04-20-2015
!!!END:	2015/05/03/
!!!EED:	Jesse Rodin
!!!EEV:	2015/05/10/
!!!ONB:	Translated from MusicXML and edited on 2015/05/10/ by Craig Sapp
!!muse2ps: C^@{COM}^i2I150v95,95,150Q16
